X: 11132
T: Valiant Joky
N: It's hard to tell whether the last letters are "ky" or "hg"; the index clearly has "ky".
%R: air, waltz, minuet
B: James Oswald "The Caledonian Pocket Companion" v.1 b.1 p.13 #2
Z: 2020 John Chambers <jc:trillian.mit.edu>
M: 3/4
L: 1/8
K: D
%%slurgraces 1
%%graceslurs 1
|: "_Slow"\
d2 A2 dA | B2 AFED | d2 fdaf | e2 (dc)(BA) |\
BGBdce | {de}f2 ed A2 | FABAdA | F2 TED D2 :|
|:\
f2 (f/g/a) fd | Tc2 (c/d/e) cA | (BAGB)ed | Tc2 BA A2 |\
{Bc}d2 FG A2 | {ef}g2 Be Tc2 | dA FD de | {de}f2 Ted d2 :|


